apps/desktop/src/lib/assets/illustrations/select-a-commit-preview.svg

<svg
			width="100%"
			height="100%"
viewBox="0 0 223 151" fill="none" xmlns="http://www.w3.org/2000/svg">
<path opacity="0.3" d="M101.407 76.6011V150.399M101.407 76.6011H222.407M101.407 76.6011V57.1011M101.407 0.601074V57.1011M101.407 57.1011H222.407M21.4066 150.399H202.268C213.314 150.399 222.268 141.445 222.268 130.399V20.6011C222.268 9.55538 213.314 0.601074 202.268 0.601074H21.4066C10.3609 0.601074 1.40662 9.55538 1.40662 20.6011V130.399C1.40662 141.445 10.3609 150.399 21.4066 150.399Z" stroke="#867E79" stroke-width="1.2"/>
<rect opacity="0.45" x="11.406" y="11.2499" width="83.3211" height="38.8085" rx="9.4" stroke="#867E79" stroke-width="1.2"/>
<path opacity="0.5" d="M11.4066 83.6011H94.4066V101.601H11.4066V83.6011Z" fill="#8FD6D2"/>
<path opacity="0.45" d="M11.406 68.6499C11.406 63.4584 15.6146 59.2499 20.806 59.2499H85.3271C90.5186 59.2499 94.7271 63.4584 94.7271 68.6499V128.658C94.7271 133.85 90.5186 138.058 85.3271 138.058H20.806C15.6146 138.058 11.406 133.85 11.406 128.658V68.6499Z" stroke="#867E79" stroke-width="1.2"/>
<g opacity="0.6">
<rect opacity="0.7" x="116.407" y="65.6011" width="76" height="3" rx="1.5" fill="#867E79"/>
<rect opacity="0.7" x="116.661" y="15.8345" width="88.1356" height="6.77052" rx="3.38526" fill="#867E79"/>
<rect opacity="0.7" x="116.661" y="31.3452" width="88.1356" height="4.23729" rx="2.11864" fill="#867E79"/>
<rect opacity="0.7" x="116.661" y="39.8198" width="71.1864" height="4.23729" rx="2.11864" fill="#867E79"/>
</g>
<path opacity="0.4" d="M148.18 92.6011L133.407 112.101L148.18 131.601M153.784 131.601L166.52 92.6011M172.633 92.6011L187.407 112.101L172.633 131.601" stroke="#867E79" stroke-width="1.2"/>
</svg>

<svg xmlns="http://www.w3.org/2000/svg" fill="none" viewBox="0 0 223 151">
  <path stroke="#867E79" stroke-width="1.2" d="M101.407 76.601V150.4m0-73.798h121m-121 0v-19.5m0-56.5v56.5m0 0h121m-201 93.298h180.861c11.046 0 20-8.954 20-20V20.601c0-11.046-8.954-20-20-20H21.407c-11.046 0-20 8.954-20 20V130.4c0 11.046 8.954 20 20 20Z" opacity=".3"/>
  <rect width="83.321" height="38.809" x="11.406" y="11.25" stroke="#867E79" stroke-width="1.2" opacity=".45" rx="9.4"/>
  <path fill="#8FD6D2" d="M11.407 83.601h83v18h-83z" opacity=".5"/>
  <path stroke="#867E79" stroke-width="1.2" d="M11.406 68.65a9.4 9.4 0 0 1 9.4-9.4h64.521a9.4 9.4 0 0 1 9.4 9.4v60.008a9.4 9.4 0 0 1-9.4 9.4H20.806a9.4 9.4 0 0 1-9.4-9.4z" opacity=".45"/>
  <g fill="#867E79" opacity=".6">
    <rect width="76" height="3" x="116.407" y="65.601" opacity=".7" rx="1.5"/>
    <rect width="88.136" height="6.771" x="116.661" y="15.835" opacity=".7" rx="3.385"/>
    <rect width="88.136" height="4.237" x="116.661" y="31.345" opacity=".7" rx="2.119"/>
    <rect width="71.186" height="4.237" x="116.661" y="39.82" opacity=".7" rx="2.119"/>
  </g>
  <path stroke="#867E79" stroke-width="1.2" d="m148.18 92.601-14.773 19.5 14.773 19.5m5.604 0 12.736-39m6.113 0 14.774 19.5-14.774 19.5" opacity=".4"/>
</svg>
